public/github.svg

<svg width="16" height="15" viewBox="0 0 16 15" fill="none" xmlns="http://www.w3.org/2000/svg">
<path d="M6.25 8.99987C6.66421 8.99987 7 9.33566 7 9.74987V11.2499C7 11.6641 6.66421 11.9999 6.25 11.9999C5.83579 11.9999 5.5 11.6641 5.5 11.2499V9.74987C5.5 9.33566 5.83579 8.99987 6.25 8.99987Z" fill="white"/>
<path d="M10.5 9.74987C10.5 9.33566 10.1642 8.99987 9.75 8.99987C9.33579 8.99987 9 9.33566 9 9.74987V11.2499C9 11.6641 9.33579 11.9999 9.75 11.9999C10.1642 11.9999 10.5 11.6641 10.5 11.2499V9.74987Z" fill="white"/>
<path d="M7.86079 1.76938C7.91028 1.8224 7.95663 1.87717 8 1.93356C8.04337 1.87717 8.08972 1.8224 8.13921 1.76938C8.82116 1.03872 9.87702 0.870479 11.0828 1.00446C12.3131 1.14115 13.2283 1.53222 13.8072 2.26504C14.3725 2.98056 14.5 3.87915 14.5 4.74987C14.5 5.3219 14.447 5.897 14.2459 6.40494L14.4135 7.24309L14.4798 7.27626C15.4115 7.74209 16 8.69432 16 9.73594V10.9999C16 11.2394 15.9143 11.4382 15.844 11.567C15.7691 11.7042 15.6751 11.8282 15.5851 11.9333C15.4049 12.1435 15.181 12.3462 14.9801 12.5135C14.7751 12.6844 14.5728 12.836 14.4235 12.9438C14.1842 13.1166 13.9389 13.276 13.6826 13.4234C13.3756 13.6 12.9344 13.8329 12.3867 14.0653C11.2956 14.5282 9.75604 14.9999 8 14.9999C6.24396 14.9999 4.70442 14.5282 3.61334 14.0653C3.06559 13.8329 2.62435 13.6 2.31739 13.4234C2.0611 13.276 1.81581 13.1166 1.57651 12.9438C1.42716 12.836 1.2249 12.6844 1.01986 12.5135C0.819 12.3462 0.595113 12.1435 0.414932 11.9333C0.3249 11.8282 0.230849 11.7042 0.156031 11.567C0.0857453 11.4382 0 11.2394 1.90735e-06 10.9999L0 9.73594C0 8.69432 0.588507 7.74209 1.52017 7.27626L1.5865 7.24309L1.75413 6.40493C1.55295 5.89699 1.5 5.3219 1.5 4.74987C1.5 3.87915 1.62745 2.98056 2.19275 2.26504C2.77172 1.53222 3.68694 1.14115 4.91718 1.00446C6.12298 0.870479 7.17884 1.03872 7.86079 1.76938ZM3.0231 7.70862L3 7.82413V12.0852C3.02086 12.0974 3.04268 12.1101 3.06543 12.1232C3.32878 12.2747 3.71567 12.4793 4.19916 12.6844C5.17058 13.0965 6.50604 13.4999 8 13.4999C9.49396 13.4999 10.8294 13.0965 11.8008 12.6844C12.2843 12.4793 12.6712 12.2747 12.9346 12.1232C12.9573 12.1101 12.9791 12.0974 13 12.0852V7.82413L12.9769 7.70862C12.4867 7.91826 11.9022 7.99987 11.25 7.99987C10.1037 7.99987 9.19051 7.67234 8.54033 7.00859C8.3213 6.78499 8.14352 6.5347 8 6.26581C7.85648 6.5347 7.6787 6.78499 7.45967 7.00859C6.80949 7.67234 5.89633 7.99987 4.75 7.99987C4.09776 7.99987 3.51325 7.91826 3.0231 7.70862ZM6.76421 2.79286C6.57116 2.58602 6.12702 2.37926 5.08282 2.49528C4.06306 2.60859 3.60328 2.89934 3.36975 3.19493C3.12255 3.50781 3 3.98422 3 4.74987C3 5.54218 3.12905 5.92064 3.3082 6.12028C3.47045 6.30109 3.82768 6.49987 4.75 6.49987C5.60367 6.49987 6.08903 6.26426 6.38811 5.95894C6.70349 5.63698 6.91507 5.13264 7.00579 4.40684C7.12274 3.47123 6.96805 3.01126 6.76421 2.79286ZM9.23579 2.79286C9.03195 3.01126 8.87726 3.47123 8.99421 4.40684C9.08493 5.13264 9.29651 5.63698 9.61189 5.95894C9.91097 6.26426 10.3963 6.49987 11.25 6.49987C12.1723 6.49987 12.5295 6.30109 12.6918 6.12028C12.871 5.92064 13 5.54218 13 4.74987C13 3.98422 12.8775 3.50781 12.6303 3.19493C12.3967 2.89934 11.9369 2.60859 10.9172 2.49528C9.87298 2.37926 9.42884 2.58602 9.23579 2.79286Z" fill="#3c7998"/>
</svg>

<svg xmlns="http://www.w3.org/2000/svg" width="16" height="15" fill="none"><path fill="#fff" d="M6.25 9a.75.75 0 0 1 .75.75v1.5a.75.75 0 0 1-1.5 0v-1.5A.75.75 0 0 1 6.25 9ZM10.5 9.75a.75.75 0 0 0-1.5 0v1.5a.75.75 0 0 0 1.5 0v-1.5Z"/><path fill="#3c7998" d="M7.86 1.77c.05.052.097.107.14.164.043-.057.09-.112.14-.165.681-.73 1.737-.899 2.943-.765 1.23.137 2.145.528 2.724 1.261.566.716.693 1.614.693 2.485 0 .572-.053 1.147-.254 1.655l.168.838.066.033A2.75 2.75 0 0 1 16 9.736V11c0 .24-.086.438-.156.567a2.177 2.177 0 0 1-.259.366 5.18 5.18 0 0 1-.605.58c-.205.171-.407.323-.556.43-.24.174-.485.333-.741.48-.307.177-.749.41-1.296.642C11.296 14.528 9.756 15 8 15c-1.756 0-3.296-.472-4.387-.935a12.079 12.079 0 0 1-1.296-.642 8.503 8.503 0 0 1-.74-.48c-.15-.107-.352-.259-.557-.43a5.18 5.18 0 0 1-.605-.58 2.17 2.17 0 0 1-.259-.366A1.19 1.19 0 0 1 0 11V9.736a2.75 2.75 0 0 1 1.52-2.46l.067-.033.167-.838C1.553 5.897 1.5 5.322 1.5 4.75c0-.87.127-1.77.693-2.485.579-.733 1.494-1.124 2.724-1.26 1.206-.135 2.262.034 2.944.764ZM3.024 7.708 3 7.824v4.261l.065.038c.264.152.65.356 1.134.561.972.413 2.307.816 3.801.816 1.494 0 2.83-.403 3.8-.816a10.58 10.58 0 0 0 1.2-.599v-4.26l-.023-.116c-.49.21-1.075.29-1.727.29-1.146 0-2.06-.327-2.71-.99A3.223 3.223 0 0 1 8 6.266c-.144.269-.321.519-.54.743-.65.663-1.564.99-2.71.99-.652 0-1.237-.08-1.727-.29Zm3.741-4.916c-.193-.207-.637-.414-1.681-.298-1.02.114-1.48.404-1.713.7-.247.313-.37.79-.37 1.555 0 .792.129 1.17.308 1.37.162.181.52.38 1.442.38.854 0 1.339-.236 1.638-.541.315-.322.527-.826.618-1.552.117-.936-.038-1.396-.242-1.614Zm2.472 0c-.204.218-.359.678-.242 1.614.09.726.303 1.23.618 1.552.299.305.784.54 1.638.54.922 0 1.28-.198 1.442-.379.179-.2.308-.578.308-1.37 0-.766-.123-1.242-.37-1.555-.233-.296-.693-.586-1.713-.7-1.044-.116-1.488.091-1.681.298Z"/></svg>
